svg/timer_stop.svg

<svg xmlns="http://www.w3.org/2000/svg" viewBox="0 0 24 24"><path d="M19 13c.7 0 1.36.13 2 .35V13c0-2.12-.74-4.07-1.97-5.61l1.42-1.42c-.45-.51-.9-.97-1.41-1.41L17.62 6c-1.55-1.26-3.5-2-5.62-2a9 9 0 0 0 0 18c.59 0 1.16-.06 1.71-.17C13.26 21 13 20.03 13 19c0-3.31 2.69-6 6-6m-6 1h-2V7h2zm2-11H9V1h6zm6.5 13.5v5h-5v-5z"/></svg>

<svg xmlns="http://www.w3.org/2000/svg" id="mdi-timer-stop" viewBox="0 0 24 24"><path d="M19 13C19.7 13 20.36 13.13 21 13.35C21 13.23 21 13.12 21 13C21 10.88 20.26 8.93 19.03 7.39L20.45 5.97C20 5.46 19.55 5 19.04 4.56L17.62 6C16.07 4.74 14.12 4 12 4C7.03 4 3 8.03 3 13S7.03 22 12 22C12.59 22 13.16 21.94 13.71 21.83C13.26 21 13 20.03 13 19C13 15.69 15.69 13 19 13M13 14H11V7H13V14M15 3H9V1H15V3M21.5 16.5V21.5H16.5V16.5H21.5Z" /></svg>
